X: 10
T: Music For A Found Harmonium
C: Simon Jeffes
Z: Smiley
S: https://thesession.org/tunes/346#setting49644
R: reel
M: 4/4
L: 1/8
K: Dmaj
DE|:"D"FDGD FDDD|FDGD FDDD|FDGD FDDD|"A"EDCD "D"FDDD:|
|:"A"EDCD EDCD|"D"FDCD FDCD|"G"GDED CDGD|1 "D"FDDD D2 DD:|2 "D"FDDD D2 D=F||
K: Cmaj
|:"F"cFEF GFEF| cFEF "A"E2EF|"F"cFEF GFEF| cFEF "A"E2 EF:|
K: Fmaj
"Bb"BFDF GFDF|BFDF GFDF|"Edim"BFEF GEEG|BFEF GEEG|"
K:D
"A7"cGEG cGGG|cGEG cGGG|cGEG cGGG|eGGG ecge||
|:"D"fdgd fddd|fdgd fddd|fdgd fddd|"A"edcd "D"fddd:|
|:"A"edcd edcd|"D7"fd=cd fdcd|"G"gded "A"cded| "D" fddd d4:|

